public/images/icon3.svg

<svg width="48" height="48" viewBox="0 0 48 48" fill="none" xmlns="http://www.w3.org/2000/svg">
<path d="M14.9234 33.7053C14.2476 33.3144 13.4092 32.9727 12.5216 32.611C11.979 32.39 11.4189 32.1612 10.8613 31.9075L4.80317 42.9302C4.37281 43.7136 4.74044 44.2263 5.62035 44.0697L8.39692 43.5751C9.27682 43.4184 10.2681 43.9696 10.5993 44.7997L11.6177 47.3514C11.9489 48.1815 12.5723 48.2201 13.0027 47.4367L18.9314 36.649C18.2232 36.1742 17.5713 35.6608 16.9686 35.1854C16.2426 34.6127 15.5571 34.0721 14.9234 33.7053Z" fill="white"/>
<path d="M43.1968 42.9301L37.1385 31.9072C36.5809 32.1611 36.0208 32.3899 35.4782 32.611C34.5906 32.9726 33.7523 33.3144 33.0764 33.7052C32.4425 34.0721 31.7568 34.6128 31.031 35.1852C30.4284 35.6604 29.7766 36.1738 29.0684 36.6486L34.9973 47.4364C35.4276 48.2198 36.0511 48.1815 36.3823 47.3511L37.4007 44.7995C37.7319 43.9693 38.7231 43.4182 39.603 43.5749L42.3796 44.0694C43.2595 44.2261 43.6271 43.7135 43.1968 42.9301Z" fill="white"/>
<path d="M16.1443 31.5951C18.6226 33.029 20.9305 35.9722 23.9997 35.9722C27.069 35.9722 29.3769 33.0292 31.8554 31.5951C34.4124 30.1156 38.0989 29.538 39.5784 26.981C41.0123 24.5025 39.7107 21.0551 39.7107 17.9858C39.7107 14.9165 41.0123 11.4692 39.5784 8.99069C38.0987 6.43386 34.4124 5.85625 31.8552 4.37679C29.3769 2.94299 27.069 0 23.9997 0C20.9305 0 18.6226 2.94299 16.1443 4.37711C13.5873 5.85625 9.90073 6.43402 8.42144 8.99086C6.98732 11.4694 8.28914 14.9167 8.28914 17.9859C8.28914 21.0552 6.98732 24.5027 8.42127 26.9812C9.90073 29.538 13.5871 30.1158 16.1443 31.5951ZM23.9997 5.04492C31.1355 5.04492 36.9411 10.8503 36.9411 17.9859C36.9411 25.1217 31.1355 30.9273 23.9997 30.9273C16.8641 30.9273 11.0587 25.1217 11.0587 17.9859C11.0587 10.8503 16.8641 5.04492 23.9997 5.04492Z" fill="white"/>
<path d="M23.9997 28.4895C29.7916 28.4895 34.5032 23.7779 34.5032 17.9861C34.5032 12.1948 29.7916 7.48291 23.9997 7.48291C18.2082 7.48291 13.4966 12.1948 13.4966 17.9861C13.4966 23.7779 18.2082 28.4895 23.9997 28.4895Z" fill="white"/>
</svg>

<svg width="48" height="48" fill="none" xmlns="http://www.w3.org/2000/svg"><path d="M14.923 33.705c-.675-.39-1.514-.732-2.401-1.094a44.681 44.681 0 0 1-1.66-.703L4.802 42.93c-.43.784-.063 1.296.817 1.14l2.777-.495c.88-.157 1.871.395 2.202 1.225l1.019 2.551c.33.83.954.87 1.385.086l5.928-10.788c-.708-.475-1.36-.988-1.962-1.464-.726-.572-1.412-1.113-2.046-1.48zM43.197 42.93l-6.059-11.023c-.557.254-1.117.483-1.66.704-.887.362-1.726.703-2.402 1.094-.633.367-1.32.908-2.045 1.48-.603.475-1.254.989-1.963 1.464l5.93 10.787c.43.784 1.053.745 1.384-.085l1.019-2.551c.33-.83 1.322-1.382 2.202-1.225l2.777.494c.88.157 1.247-.355.817-1.139zM16.144 31.595c2.479 1.434 4.787 4.377 7.856 4.377s5.377-2.943 7.855-4.377c2.557-1.48 6.244-2.057 7.723-4.614 1.434-2.479.133-5.926.133-8.995 0-3.07 1.301-6.517-.133-8.995-1.48-2.557-5.166-3.135-7.723-4.614C29.377 2.943 27.07 0 24 0c-3.07 0-5.377 2.943-7.856 4.377-2.557 1.48-6.243 2.057-7.723 4.614-1.434 2.478-.132 5.926-.132 8.995 0 3.07-1.302 6.517.132 8.995 1.48 2.557 5.166 3.135 7.723 4.614zM24 5.045c7.136 0 12.941 5.805 12.941 12.94 0 7.137-5.806 12.942-12.941 12.942-7.136 0-12.941-5.805-12.941-12.941 0-7.136 5.805-12.941 12.94-12.941z" fill="#fff"/><path d="M24 28.49c5.792 0 10.503-4.712 10.503-10.504 0-5.791-4.711-10.503-10.503-10.503s-10.503 4.712-10.503 10.503c0 5.792 4.711 10.503 10.503 10.503z" fill="#fff"/></svg>
